public/images/logo.svg

<svg width="48" height="48" viewBox="0 0 48 48" fill="none" xmlns="http://www.w3.org/2000/svg">
<path d="M30.4294 26.3435L46 26.5679L30.7227 23.5323L45.0381 17.3697L29.8547 20.8442L40.4391 9.35915L27.9734 18.743L32.997 3.92245L25.4058 17.5941L23.9995 2L22.5942 17.5941L15.002 3.92245L20.0266 18.743L7.56086 9.35915L18.1453 20.8442L2.96187 17.3697L17.2763 23.5323L2 26.5679L17.5706 26.3435L4.84215 35.3649L18.9759 28.7913L10.9975 42.2375L21.2502 30.4525L19.4005 46L23.9995 31.0404L28.5995 46L26.7498 30.4525L37.0025 42.2375L29.0241 28.7913L43.1569 35.3649L30.4294 26.3435Z" fill="white"/>
</svg>

<svg xmlns="http://www.w3.org/2000/svg" width="48" height="48" fill="none"><path fill="#fff" d="m30.43 26.344 15.57.224-15.277-3.036 14.315-6.162-15.183 3.474L40.439 9.36l-12.466 9.384 5.024-14.82-7.591 13.671L24 2l-1.406 15.594-7.592-13.672 5.025 14.821L7.56 9.359l10.584 11.485L2.962 17.37l14.314 6.162L2 26.568l15.57-.225-12.728 9.022 14.134-6.574-7.978 13.446L21.25 30.452 19.4 46 24 31.04 28.6 46l-1.85-15.547 10.252 11.784-7.978-13.446 14.133 6.574z"/></svg>
